assets/icon/onboarding_2_light.svg

<svg width="328" height="432" viewBox="0 0 328 432" fill="none" xmlns="http://www.w3.org/2000/svg">
<circle cx="164.439" cy="250.947" r="129.907" transform="rotate(-107 164.439 250.947)" fill="#191933" stroke="#E8E8EB" stroke-width="2"/>
<path d="M127.708 155.586C73.6853 172.102 43.1576 228.883 59.5225 282.41" stroke="#E8E8EB" stroke-width="2"/>
<circle cx="272.242" cy="110.611" r="28.2231" transform="rotate(-107 272.242 110.611)" fill="#191933" stroke="#E8E8EB" stroke-width="2"/>
<path d="M266.536 89.323C254.476 93.0101 247.661 105.686 251.314 117.635" stroke="#E8E8EB" stroke-width="2"/>
<circle cx="203.924" cy="48.5817" r="37.4645" transform="rotate(-107 203.924 48.5817)" fill="#191933" stroke="#E8E8EB" stroke-width="2"/>
<path d="M196.412 20.5633C180.539 25.4163 171.569 42.1003 176.378 57.8281" stroke="#E8E8EB" stroke-width="2"/>
<circle cx="58.7131" cy="399.202" r="25.0491" transform="rotate(-107 58.7131 399.202)" fill="#191933" stroke="#E8E8EB" stroke-width="2"/>
<path d="M53.6261 380.228C42.8762 383.515 36.8016 394.814 40.058 405.465" stroke="#E8E8EB" stroke-width="2"/>
<path d="M182.664 287.443H201.921H221.243V297.198V313.966L216.42 318.789H187.486L182.664 313.966V287.443Z" fill="#191933" stroke="white" stroke-width="2" stroke-linecap="round"/>
<path d="M191.104 287.437L191.183 280.14C191.246 274.234 196.051 269.48 201.957 269.48V269.48V269.48C207.948 269.48 212.805 274.337 212.805 280.328V287.437" stroke="white" stroke-width="2" stroke-linecap="square" stroke-linejoin="round"/>
<path d="M201.959 304.977V300.373" stroke="white" stroke-width="2" stroke-linecap="square" stroke-linejoin="round"/>
<path d="M122.13 301.213V216.748H227.966V204.536H155.713L146.554 195.377H109.918V301.213H122.13Z" fill="#191933"/>
<path d="M221.639 301.213H237.125V216.748H227.966M122.13 301.213V216.748H227.966M122.13 301.213H182.183M122.13 301.213H109.918V195.377H146.554L155.713 204.536H227.966V216.748" stroke="white" stroke-width="2" stroke-linecap="square" stroke-linejoin="round"/>
</svg>

<svg fill="none" height="432" viewBox="0 0 328 432" width="328" xmlns="http://www.w3.org/2000/svg"><g stroke-width="2"><circle cx="164.439" cy="250.947" fill="#191933" r="129.907" stroke="#e8e8eb" transform="matrix(-.2923717 -.95630476 .95630476 -.2923717 -27.465499 481.5706)"/><path d="m127.708 155.586c-54.0227 16.516-84.5504 73.297-68.1855 126.824" stroke="#e8e8eb"/><circle cx="272.242" cy="110.611" fill="#191933" r="28.2231" stroke="#e8e8eb" transform="matrix(-.2923717 -.95630476 .95630476 -.2923717 246.060032 403.296846)"/><path d="m266.536 89.323c-12.06 3.6871-18.875 16.363-15.222 28.312" stroke="#e8e8eb"/><circle cx="203.924" cy="48.5817" fill="#191933" r="37.4645" stroke="#e8e8eb" transform="matrix(-.2923717 -.95630476 .95630476 -.2923717 217.086697 257.799106)"/><path d="m196.412 20.5633c-15.873 4.853-24.843 21.537-20.034 37.2648" stroke="#e8e8eb"/><circle cx="58.7131" cy="399.202" fill="#191933" r="25.0491" stroke="#e8e8eb" transform="matrix(-.2923717 -.95630476 .95630476 -.2923717 -305.879622 572.064986)"/><path d="m53.6261 380.228c-10.7499 3.287-16.8245 14.586-13.5681 25.237" stroke="#e8e8eb"/><path d="m182.664 287.443h19.257 19.322v9.755 16.768l-4.823 4.823h-28.934l-4.822-4.823z" fill="#191933" stroke="#fff" stroke-linecap="round"/><path d="m191.104 287.437.079-7.297c.063-5.906 4.868-10.66 10.774-10.66 5.991 0 10.848 4.857 10.848 10.848v7.109" stroke="#fff" stroke-linecap="square" stroke-linejoin="round"/><path d="m201.959 304.977v-4.604" stroke="#fff" stroke-linecap="square" stroke-linejoin="round"/></g><path d="m122.13 301.213v-84.465h105.836v-12.212h-72.253l-9.159-9.159h-36.636v105.836z" fill="#191933"/><path d="m221.639 301.213h15.486v-84.465h-9.159m-105.836 84.465v-84.465h105.836m-105.836 84.465h60.053m-60.053 0h-12.212v-105.836h36.636l9.159 9.159h72.253v12.212" stroke="#fff" stroke-linecap="square" stroke-linejoin="round" stroke-width="2"/></svg>
